app/dist/common/images/crrc-limited.svg

<svg height="18" viewBox="0 0 18 18" width="18" xmlns="http://www.w3.org/2000/svg"><path d="m0 0h18v18h-18z" fill="#f0f3fa"/><path d="m10 4v-1h-2v1h-4v1h10v-1zm3 3.7c0-.33-.25-.7-.53-.7h-2.97v-1h3.06c.8 0 1.44.72 1.44 1.61v2.78c0 .89-.65 1.6-1.44 1.6h-3.06v-.99h2.98c.28 0 .52-.38.52-.71v-2.6zm-2.17.7c.1 0 .17.1.17.2v.8c0 .1-.07.2-.17.2h-1.33v-1.2zm-5.83-.7c0-.33.26-.7.55-.7h2.95v-1h-3.06c-.8 0-1.44.72-1.44 1.61v2.78c0 .89.65 1.6 1.44 1.6h3.06v-.99h-2.96c-.28 0-.54-.38-.54-.71v-2.6zm2.17.7c-.1 0-.17.07-.17.19v.83c0 .11.07.18.17.18h1.33v-1.2zm2.83 6.6v-1h4v-1h-10v1h4v1z" fill="#c80114"/></svg>

<!-- by TradingView --><svg width="18" height="18" viewBox="0 0 18 18" xmlns="http://www.w3.org/2000/svg"><path fill="#F0F3FA" d="M0 0h18v18H0z"/><path d="M10 4V3H8v1H4v1h10V4h-4Zm3 3.7c0-.33-.25-.7-.53-.7H9.5V6h3.06c.8 0 1.44.72 1.44 1.61v2.78c0 .89-.65 1.6-1.44 1.6H9.5V11h2.98c.28 0 .52-.38.52-.71v-2.6Zm-2.17.7c.1 0 .17.1.17.2v.8c0 .1-.07.2-.17.2H9.5V8.4h1.33ZM5 7.7c0-.33.26-.7.55-.7H8.5V6H5.44C4.64 6 4 6.72 4 7.61v2.78c0 .89.65 1.6 1.44 1.6H8.5V11H5.54c-.28 0-.54-.38-.54-.71v-2.6Zm2.17.7c-.1 0-.17.07-.17.19v.83c0 .11.07.18.17.18H8.5V8.4H7.17ZM10 15v-1h4v-1H4v1h4v1h2Z" fill="#C80114"/></svg>
